icons/recycle-line.svg

<svg xmlns="http://www.w3.org/2000/svg" width="24" height="24" fill="none"><g clip-path="url(#a)"><g><path fill="#121212" d="M19.5624 12.097L21.0934 14.75C22.0604 16.424 21.4864 18.565 19.8134 19.531C19.2804 19.838 18.6774 20 18.0634 20H16.0004V22.5L11.0004 19L16.0004 15.5V18H18.0624C18.3254 18 18.5844 17.93 18.8124 17.799C19.5304 17.385 19.7754 16.467 19.3624 15.75L17.8304 13.097L19.5624 12.097ZM7.30444 9.134L7.83444 15.214L5.67044 13.964L4.63944 15.75C4.50744 15.978 4.43844 16.237 4.43844 16.5C4.43844 17.328 5.10944 18 5.93844 18H9.00044V20H5.93844C4.00544 20 2.43844 18.433 2.43844 16.5C2.43844 15.886 2.60044 15.282 2.90744 14.75L3.93744 12.963L1.77344 11.714L7.30344 9.134H7.30444ZM13.7504 2.969C14.2824 3.276 14.7244 3.718 15.0314 4.25L16.0614 6.035L18.2274 4.785L17.6974 10.866L12.1654 8.286L14.3304 7.036L13.2994 5.25C13.1674 5.022 12.9784 4.833 12.7504 4.701C12.0334 4.287 11.1154 4.533 10.7014 5.25L9.16944 7.903L7.43744 6.903L8.97044 4.25C9.93644 2.576 12.0774 2.002 13.7514 2.969H13.7504Z"/></g></g><defs><clipPath id="a"><rect width="24" height="24" fill="white"/></clipPath></defs></svg>

<svg width="24" height="24" fill="none" xmlns="http://www.w3.org/2000/svg"><g clip-path="url(#a)"><path d="m19.562 12.097 1.531 2.653a3.5 3.5 0 0 1-3.03 5.25H16v2.5L11 19l5-3.5V18h2.062a1.5 1.5 0 0 0 1.3-2.25l-1.532-2.653 1.732-1ZM7.304 9.134l.53 6.08-2.164-1.25-1.03 1.786A1.5 1.5 0 0 0 5.938 18H9v2H5.938a3.5 3.5 0 0 1-3.03-5.25l1.03-1.787-2.165-1.249 5.53-2.58h.001Zm6.446-6.165c.532.307.974.749 1.281 1.281l1.03 1.785 2.166-1.25-.53 6.081-5.532-2.58 2.165-1.25L13.3 5.25a1.5 1.5 0 0 0-2.598 0L9.168 7.903l-1.732-1L8.97 4.25a3.5 3.5 0 0 1 4.781-1.281Z" /></g><defs><clipPath id="a"><path fill="#fff" d="M0 0h24v24H0z"/></clipPath></defs></svg>
